X: 1
T: Da mihi manum
B: A COLECTION of the most Celebrated Irish Tunes3b
M: 6/4
L: 1/8
K: G
D2 |\
E2G2G2 G4D2 | E2G2G2 G4D2 | E2G2G2 G2A2B2 | B2e2d2 B4AG | A2A2e2 B2B2d2 |
A3BAG E4D2 | E2G2G2 g4D2 | E2G2G2 g4D2 | E2G2G2 g2a2b2 | B3bab g4D2 |
E2G2G2 G2A2B2 | B2e2d2 B4AG | A2A2e2 B2B2d2 | A2B2d2 e4dB | d2d2e2 g4ed |
e2e2g2 a4ge | g2g2de g2g2de | g2g2a2 b6 | b2b2b2 b4ag | agabab a4g2 |
e2e2ge d2d2ed | B2B2dB A4G2 | G2G2Bd =f4ed | e2e2g2 e4dB | d2d2g2 B2B2d2 | A3BAG E4D2 |]
